icon/lg/mastercard.svg

<?xml version="1.0" encoding="UTF-8"?>
<svg viewBox="0 0 256 199" version="1.1" xmlns="http://www.w3.org/2000/svg" xmlns:xlink="http://www.w3.org/1999/xlink" preserveAspectRatio="xMidYMid" height="1em" width="1em">
  <g>
    <path d="M46.5392504,198.011312 L46.5392504,184.839826 C46.5392504,179.790757 43.4659038,176.497885 38.1973096,176.497885 C35.5630125,176.497885 32.7091906,177.375984 30.7334678,180.229806 C29.1967945,177.815034 27.0015469,176.497885 23.7086756,176.497885 C21.513428,176.497885 19.3181804,177.15646 17.5619824,179.571233 L17.5619824,176.936935 L12.9519625,176.936935 L12.9519625,198.011312 L17.5619824,198.011312 L17.5619824,186.3765 C17.5619824,182.644579 19.5377052,180.888381 22.6110518,180.888381 C25.6843984,180.888381 27.2210717,182.864103 27.2210717,186.3765 L27.2210717,198.011312 L31.8310916,198.011312 L31.8310916,186.3765 C31.8310916,182.644579 34.0263392,180.888381 36.880161,180.888381 C39.9535076,180.888381 41.490181,182.864103 41.490181,186.3765 L41.490181,198.011312 L46.5392504,198.011312 L46.5392504,198.011312 Z M114.81145,176.936935 L107.347608,176.936935 L107.347608,170.570717 L102.737589,170.570717 L102.737589,176.936935 L98.566618,176.936935 L98.566618,181.107905 L102.737589,181.107905 L102.737589,190.766995 C102.737589,195.59654 104.713311,198.450362 109.981906,198.450362 C111.957628,198.450362 114.152876,197.791787 115.689549,196.913688 L114.372401,192.962243 C113.055252,193.840341 111.518579,194.059866 110.420955,194.059866 C108.225708,194.059866 107.347608,192.742718 107.347608,190.54747 L107.347608,181.107905 L114.81145,181.107905 L114.81145,176.936935 L114.81145,176.936935 Z M153.886857,176.497885 C151.25256,176.497885 149.496362,177.815034 148.398738,179.571233 L148.398738,176.936935 L143.788718,176.936935 L143.788718,198.011312 L148.398738,198.011312 L148.398738,186.156975 C148.398738,182.644579 149.935411,180.668856 152.789233,180.668856 C153.667332,180.668856 154.764956,180.888381 155.643055,181.107905 L156.960204,176.71741 C156.082105,176.497885 154.764956,176.497885 153.886857,176.497885 L153.886857,176.497885 L153.886857,176.497885 Z M94.834697,178.693133 C92.6394495,177.15646 89.566103,176.497885 86.2732315,176.497885 C81.0046375,176.497885 77.492241,179.132183 77.492241,183.303153 C77.492241,186.81555 80.1265385,188.791272 84.736558,189.449847 L86.931806,189.669371 C89.346578,190.10842 90.6637265,190.766995 90.6637265,191.864619 C90.6637265,193.401292 88.9075285,194.498916 85.834182,194.498916 C82.7608355,194.498916 80.346063,193.401292 78.8093895,192.303668 L76.614142,195.816065 C79.0289145,197.572262 82.321786,198.450362 85.614657,198.450362 C91.7613505,198.450362 95.2737465,195.59654 95.2737465,191.645094 C95.2737465,187.913173 92.4199245,185.937451 88.0294295,185.278876 L85.834182,185.059351 C83.858459,184.839826 82.321786,184.400777 82.321786,183.083629 C82.321786,181.546955 83.858459,180.668856 86.2732315,180.668856 C88.9075285,180.668856 91.5418255,181.76648 92.858974,182.425054 L94.834697,178.693133 L94.834697,178.693133 Z M217.329512,176.497885 C214.695215,176.497885 212.939017,177.815034 211.841393,179.571233 L211.841393,176.936935 L207.231373,176.936935 L207.231373,198.011312 L211.841393,198.011312 L211.841393,186.156975 C211.841393,182.644579 213.378066,180.668856 216.231888,180.668856 C217.109987,180.668856 218.207611,180.888381 219.08571,181.107905 L220.402859,176.71741 C219.52476,176.497885 218.207611,176.497885 217.329512,176.497885 L217.329512,176.497885 L217.329512,176.497885 Z M158.496877,187.474123 C158.496877,193.840341 162.887372,198.450362 169.69264,198.450362 C172.765986,198.450362 174.961234,197.791787 177.156481,196.035589 L174.961234,192.303668 C173.205036,193.620817 171.448838,194.279391 169.473115,194.279391 C165.741194,194.279391 163.106897,191.645094 163.106897,187.474123 C163.106897,183.522678 165.741194,180.888381 169.473115,180.668856 C171.448838,180.668856 173.205036,181.32743 174.961234,182.644579 L177.156481,178.912658 C174.961234,177.15646 172.765986,176.497885 169.69264,176.497885 C162.887372,176.497885 158.496877,181.107905 158.496877,187.474123 L158.496877,187.474123 L158.496877,187.474123 Z M201.08468,187.474123 L201.08468,176.936935 L196.47466,176.936935 L196.47466,179.571233 C194.937987,177.595509 192.742739,176.497885 189.888917,176.497885 C183.961749,176.497885 179.351729,181.107905 179.351729,187.474123 C179.351729,193.840341 183.961749,198.450362 189.888917,198.450362 C192.962264,198.450362 195.157512,197.352737 196.47466,195.377015 L196.47466,198.011312 L201.08468,198.011312 L201.08468,187.474123 Z M184.181274,187.474123 C184.181274,183.742202 186.596046,180.668856 190.547492,180.668856 C194.279413,180.668856 196.91371,183.522678 196.91371,187.474123 C196.91371,191.206044 194.279413,194.279391 190.547492,194.279391 C186.596046,194.059866 184.181274,191.206044 184.181274,187.474123 L184.181274,187.474123 Z M129.080559,176.497885 C122.933866,176.497885 118.543371,180.888381 118.543371,187.474123 C118.543371,194.059866 122.933866,198.450362 129.300084,198.450362 C132.373431,198.450362 135.446777,197.572262 137.861549,195.59654 L135.666302,192.303668 C133.910104,193.620817 131.714856,194.498916 129.519609,194.498916 C126.665787,194.498916 123.811965,193.181768 123.153391,189.449847 L138.739648,189.449847 L138.739648,187.693648 C138.959173,180.888381 135.007727,176.497885 129.080559,176.497885 L129.080559,176.497885 L129.080559,176.497885 Z M129.080559,180.449331 C131.934381,180.449331 133.910104,182.20553 134.349153,185.498401 L123.372916,185.498401 C123.811965,182.644579 125.787688,180.449331 129.080559,180.449331 L129.080559,180.449331 Z M243.452958,187.474123 L243.452958,168.594995 L238.842938,168.594995 L238.842938,179.571233 C237.306265,177.595509 235.111017,176.497885 232.257196,176.497885 C226.330027,176.497885 221.720007,181.107905 221.720007,187.474123 C221.720007,193.840341 226.330027,198.450362 232.257196,198.450362 C235.330542,198.450362 237.52579,197.352737 238.842938,195.377015 L238.842938,198.011312 L243.452958,198.011312 L243.452958,187.474123 Z M226.549552,187.474123 C226.549552,183.742202 228.964324,180.668856 232.91577,180.668856 C236.647691,180.668856 239.281988,183.522678 239.281988,187.474123 C239.281988,191.206044 236.647691,194.279391 232.91577,194.279391 C228.964324,194.059866 226.549552,191.206044 226.549552,187.474123 L226.549552,187.474123 Z M72.443172,187.474123 L72.443172,176.936935 L67.833152,176.936935 L67.833152,179.571233 C66.2964785,177.595509 64.101231,176.497885 61.247409,176.497885 C55.3202405,176.497885 50.7102205,181.107905 50.7102205,187.474123 C50.7102205,193.840341 55.3202405,198.450362 61.247409,198.450362 C64.3207555,198.450362 66.5160035,197.352737 67.833152,195.377015 L67.833152,198.011312 L72.443172,198.011312 L72.443172,187.474123 Z M55.3202405,187.474123 C55.3202405,183.742202 57.735013,180.668856 61.6864585,180.668856 C65.4183795,180.668856 68.0526765,183.522678 68.0526765,187.474123 C68.0526765,191.206044 65.4183795,194.279391 61.6864585,194.279391 C57.735013,194.059866 55.3202405,191.206044 55.3202405,187.474123 Z" fill="#000000"/>
    <rect fill="#FF5F00" x="93.2980455" y="16.9034088" width="69.1502985" height="124.251009"/>
    <path d="M97.688519,79.0288935 C97.688519,53.783546 109.542856,31.3920209 127.763411,16.9033869 C114.3724,6.3661985 97.468994,-1.94737475e-05 79.0289145,-1.94737475e-05 C35.3434877,-1.94737475e-05 1.7258174e-06,35.3434665 1.7258174e-06,79.0288935 C1.7258174e-06,122.71432 35.3434877,158.057806 79.0289145,158.057806 C97.468994,158.057806 114.3724,151.691588 127.763411,141.1544 C109.542856,126.88529 97.688519,104.274241 97.688519,79.0288935 Z" fill="#EB001B"/>
    <path d="M255.746345,79.0288935 C255.746345,122.71432 220.402859,158.057806 176.717432,158.057806 C158.277352,158.057806 141.373945,151.691588 127.982936,141.1544 C146.423015,126.665766 158.057827,104.274241 158.057827,79.0288935 C158.057827,53.783546 146.20349,31.3920209 127.982936,16.9033869 C141.373945,6.3661985 158.277352,-1.94737475e-05 176.717432,-1.94737475e-05 C220.402859,-1.94737475e-05 255.746345,35.5629913 255.746345,79.0288935 Z" fill="#F79E1B"/>
  </g>
</svg>

<svg width="256" height="199" xmlns="http://www.w3.org/2000/svg" preserveAspectRatio="xMidYMid"><path d="M46.54 198.011V184.84c0-5.05-3.074-8.342-8.343-8.342-2.634 0-5.488.878-7.464 3.732-1.536-2.415-3.731-3.732-7.024-3.732-2.196 0-4.39.658-6.147 3.073v-2.634h-4.61v21.074h4.61v-11.635c0-3.731 1.976-5.488 5.05-5.488 3.072 0 4.61 1.976 4.61 5.488v11.635h4.61v-11.635c0-3.731 2.194-5.488 5.048-5.488 3.074 0 4.61 1.976 4.61 5.488v11.635h5.05Zm68.271-21.074h-7.463v-6.366h-4.61v6.366h-4.171v4.17h4.17v9.66c0 4.83 1.976 7.683 7.245 7.683 1.976 0 4.17-.658 5.708-1.536l-1.318-3.952c-1.317.878-2.853 1.098-3.951 1.098-2.195 0-3.073-1.317-3.073-3.513v-9.44h7.463v-4.17Zm39.076-.44c-2.634 0-4.39 1.318-5.488 3.074v-2.634h-4.61v21.074h4.61v-11.854c0-3.512 1.536-5.488 4.39-5.488.878 0 1.976.22 2.854.439l1.317-4.39c-.878-.22-2.195-.22-3.073-.22Zm-59.052 2.196c-2.196-1.537-5.269-2.195-8.562-2.195-5.268 0-8.78 2.634-8.78 6.805 0 3.513 2.634 5.488 7.244 6.147l2.195.22c2.415.438 3.732 1.097 3.732 2.195 0 1.536-1.756 2.634-4.83 2.634-3.073 0-5.488-1.098-7.025-2.195l-2.195 3.512c2.415 1.756 5.708 2.634 9 2.634 6.147 0 9.66-2.853 9.66-6.805 0-3.732-2.854-5.708-7.245-6.366l-2.195-.22c-1.976-.22-3.512-.658-3.512-1.975 0-1.537 1.536-2.415 3.951-2.415 2.635 0 5.269 1.097 6.586 1.756l1.976-3.732Zm122.495-2.195c-2.635 0-4.391 1.317-5.489 3.073v-2.634h-4.61v21.074h4.61v-11.854c0-3.512 1.537-5.488 4.39-5.488.879 0 1.977.22 2.855.439l1.317-4.39c-.878-.22-2.195-.22-3.073-.22Zm-58.833 10.976c0 6.366 4.39 10.976 11.196 10.976 3.073 0 5.268-.658 7.463-2.414l-2.195-3.732c-1.756 1.317-3.512 1.975-5.488 1.975-3.732 0-6.366-2.634-6.366-6.805 0-3.951 2.634-6.586 6.366-6.805 1.976 0 3.732.658 5.488 1.976l2.195-3.732c-2.195-1.757-4.39-2.415-7.463-2.415-6.806 0-11.196 4.61-11.196 10.976Zm42.588 0v-10.537h-4.61v2.634c-1.537-1.975-3.732-3.073-6.586-3.073-5.927 0-10.537 4.61-10.537 10.976 0 6.366 4.61 10.976 10.537 10.976 3.073 0 5.269-1.097 6.586-3.073v2.634h4.61v-10.537Zm-16.904 0c0-3.732 2.415-6.805 6.366-6.805 3.732 0 6.367 2.854 6.367 6.805 0 3.732-2.635 6.805-6.367 6.805-3.951-.22-6.366-3.073-6.366-6.805Zm-55.1-10.976c-6.147 0-10.538 4.39-10.538 10.976 0 6.586 4.39 10.976 10.757 10.976 3.073 0 6.147-.878 8.562-2.853l-2.196-3.293c-1.756 1.317-3.951 2.195-6.146 2.195-2.854 0-5.708-1.317-6.367-5.05h15.587v-1.755c.22-6.806-3.732-11.196-9.66-11.196Zm0 3.951c2.853 0 4.83 1.757 5.268 5.05h-10.976c.439-2.854 2.415-5.05 5.708-5.05Zm114.372 7.025v-18.879h-4.61v10.976c-1.537-1.975-3.732-3.073-6.586-3.073-5.927 0-10.537 4.61-10.537 10.976 0 6.366 4.61 10.976 10.537 10.976 3.074 0 5.269-1.097 6.586-3.073v2.634h4.61v-10.537Zm-16.903 0c0-3.732 2.414-6.805 6.366-6.805 3.732 0 6.366 2.854 6.366 6.805 0 3.732-2.634 6.805-6.366 6.805-3.952-.22-6.366-3.073-6.366-6.805Zm-154.107 0v-10.537h-4.61v2.634c-1.537-1.975-3.732-3.073-6.586-3.073-5.927 0-10.537 4.61-10.537 10.976 0 6.366 4.61 10.976 10.537 10.976 3.074 0 5.269-1.097 6.586-3.073v2.634h4.61v-10.537Zm-17.123 0c0-3.732 2.415-6.805 6.366-6.805 3.732 0 6.367 2.854 6.367 6.805 0 3.732-2.635 6.805-6.367 6.805-3.951-.22-6.366-3.073-6.366-6.805Z"/><path fill="#FF5F00" d="M93.298 16.903h69.15v124.251h-69.15z"/><path d="M97.689 79.029c0-25.245 11.854-47.637 30.074-62.126C114.373 6.366 97.47 0 79.03 0 35.343 0 0 35.343 0 79.029c0 43.685 35.343 79.029 79.029 79.029 18.44 0 35.343-6.366 48.734-16.904-18.22-14.269-30.074-36.88-30.074-62.125Z" fill="#EB001B"/><path d="M255.746 79.029c0 43.685-35.343 79.029-79.029 79.029-18.44 0-35.343-6.366-48.734-16.904 18.44-14.488 30.075-36.88 30.075-62.125 0-25.245-11.855-47.637-30.075-62.126C141.373 6.366 158.277 0 176.717 0c43.686 0 79.03 35.563 79.03 79.029Z" fill="#F79E1B"/></svg>
